X:1
T:the Possum's Tail is Bare
M:C|
L:1/8
Z:AK/Fiddler’s Companion
F:http://www.ibiblio.org/fiddlers/PORT_POY.htm 2012-10-12
K:D
DE |\
"D"F2 FF FEDF | "G"G2G2 B3B | "D"A2F2 E2{FE}D2 | "A7"[A,3E3] "D"DE |\
"D"F2 FF FEDF | "G"G2G2 B3B | "D"A2F2 "A7"E2C2 | "D"D4- D3 :|
|: FE |\
"D"D2{F}F2 A2B2 | "C"[E3=c3]c "(D7)"d2dc | "G"B2{G}G2 Bc d2 | "D"A3A "A7"A2 AB/c/ |\
"D"d2 dd dBAF | "G"G2G2 B3B | "D"A2F2 "A7"E2C2 | "D"D4- D3 :|
